X:1042
T:Rosie o' Grady
C:Joe Buchanan's Scottish Tome - Page 632.1
I:632 1
Z:Carl Allison
R:Waltz
L:1/4
M:3/4
K:F
C | "F"A3 | "C7"G A G | "F"F3 | "F7"D3 | "Bb"F3 | "B"G "Ddim"F E | "F"F3- | F2 D |
"Bb"F3 | "Bb"F G ^G | "F"A3 | "Dm"D3 | "G7"A3 | "G7"G F D | "C7"G3- | "C7"G2 C |
"F"A3 | "C7"G A G | "F"F3 | "F7"C3 | "Bb"F3 | "Dm"G F G | "A7"A3- | "A7"A2 G |
"F7"F E F | "Bb"G F D | "F"C3 | "D7"A2 ^G | "G7"G ^F G | "C7"D E C | "F"F3- | F2 :|

